svg/building/TV_towe_line.svg

<?xml version="1.0" encoding="UTF-8"?>
<svg width="24px" height="24px" viewBox="0 0 24 24" version="1.1" xmlns="http://www.w3.org/2000/svg" xmlns:xlink="http://www.w3.org/1999/xlink">
    <title>tower_2_line</title>
    <g id="页面-1" stroke="none" stroke-width="1" fill="none" fill-rule="evenodd">
        <g id="Building" transform="translate(-192.000000, -96.000000)">
            <g id="tower_2_line" transform="translate(192.000000, 96.000000)">
                 <path d="M24,0 L24,24 L0,24 L0,0 L24,0 Z M12.5934901,23.257841 L12.5819402,23.2595131 L12.5108777,23.2950439 L12.4918791,23.2987469 L12.4918791,23.2987469 L12.4767152,23.2950439 L12.4056548,23.2595131 C12.3958229,23.2563662 12.3870493,23.2590235 12.3821421,23.2649074 L12.3780323,23.275831 L12.360941,23.7031097 L12.3658947,23.7234994 L12.3769048,23.7357139 L12.4804777,23.8096931 L12.4953491,23.8136134 L12.4953491,23.8136134 L12.5071152,23.8096931 L12.6106902,23.7357139 L12.6232938,23.7196733 L12.6232938,23.7196733 L12.6266527,23.7031097 L12.609561,23.275831 C12.6075724,23.2657013 12.6010112,23.2592993 12.5934901,23.257841 L12.5934901,23.257841 Z M12.8583906,23.1452862 L12.8445485,23.1473072 L12.6598443,23.2396597 L12.6498822,23.2499052 L12.6498822,23.2499052 L12.6471943,23.2611114 L12.6650943,23.6906389 L12.6699349,23.7034178 L12.6699349,23.7034178 L12.678386,23.7104931 L12.8793402,23.8032389 C12.8914285,23.8068999 12.9022333,23.8029875 12.9078286,23.7952264 L12.9118235,23.7811639 L12.8776777,23.1665331 C12.8752882,23.1545897 12.8674102,23.1470016 12.8583906,23.1452862 L12.8583906,23.1452862 Z M12.1430473,23.1473072 C12.1332178,23.1423925 12.1221763,23.1452606 12.1156365,23.1525954 L12.1099173,23.1665331 L12.0757714,23.7811639 C12.0751323,23.7926639 12.0828099,23.8018602 12.0926481,23.8045676 L12.108256,23.8032389 L12.3092106,23.7104931 L12.3186497,23.7024347 L12.3186497,23.7024347 L12.3225043,23.6906389 L12.340401,23.2611114 L12.337245,23.2485176 L12.337245,23.2485176 L12.3277531,23.2396597 L12.1430473,23.1473072 Z" id="MingCute" fill-rule="nonzero"></path>
                <path d="M12.0001,1 C12.51295,1 12.9356092,1.38604429 12.9933725,1.88337975 L13.0001,2 L13.0001,4.17071 C14.1653,4.58254 15.0001,5.69378 15.0001,7 C15.0001,7.77622417 14.7053306,8.48359597 14.2215476,9.01625932 L14.085,9.15712 L14.8702,11.9053 C16.1582,12.8098 17.0001,14.3066 17.0001,16 C17.0001,16.97295 16.7222201,17.8810306 16.2414062,18.6491418 L16.1053,18.8551 L17.8322,21.4453 C18.1385,21.9048 18.0143,22.5257 17.5548,22.8321 C17.1281214,23.1165214 16.5622765,23.0297464 16.2383776,22.6479974 L16.1681,22.5547 L14.6327,20.2516 C14.22145,20.50685 13.7704083,20.7040444 13.2910333,20.8317829 L13.0001,20.9 L13.0001,22 C13.0001,22.5523 12.5524,23.0001099 12.0001,23.0001099 C11.48725,23.0001099 11.0645908,22.6139881 11.0068275,22.1166255 L11.0001,22 L11.0001,20.9 C10.50985,20.8005 10.0456764,20.6292639 9.61896806,20.3976921 L9.36753,20.2516 L7.83216,22.5547 C7.5258,23.0142 6.90493,23.1384 6.44541,22.8321 C6.01870357,22.5475857 5.88115097,21.9918954 6.10896664,21.5460613 L6.16806,21.4453 L7.89487,18.8551 C7.33084,18.0456 7.00011,17.0614 7.00011,16 C7.00011,14.39127 7.75988865,12.9599715 8.94019981,12.0453678 L9.13001,11.9053 L9.9152,9.15712 C9.35095,8.61164 9.00011,7.84679 9.00011,7 C9.00011,5.759091 9.753517,4.69415145 10.8278625,4.23766702 L11.0001,4.17071 L11.0001,2 C11.0001,1.44772 11.4478,1 12.0001,1 Z M14.9614,16.4832 C14.1704,16.7393 13.1018,17 12.0001,17 C10.8984,17 9.82977,16.7393 9.03881,16.4832 C9.26987,17.9103 10.5077,19 12.0001,19 C13.4925,19 14.7303,17.9103 14.9614,16.4832 Z M12.0001,13 C10.8914,13 9.92323,13.6014 9.40392,14.4958 C10.1169,14.7459 11.0838,15 12.0001,15 C12.9164,15 13.8833,14.7459 14.5963,14.4958 C14.077,13.6014 13.1088,13 12.0001,13 Z M12.243,9.99031 C12.1362,9.99883667 12.0270889,10.0016789 11.9187481,9.99883667 L11.7572,9.99031 L11.4605,11.0288 C11.726375,11.000225 12.0010813,10.9930813 12.2713719,11.0073688 L12.5397,11.0288 L12.243,9.99031 Z M12.0001,6 C11.4478,6 11.0001,6.44772 11.0001,7 C11.0001,7.55228 11.4478,8 12.0001,8 C12.5524,8 13.0001,7.55228 13.0001,7 C13.0001,6.44772 12.5524,6 12.0001,6 Z" id="形状" fill="#09244B"></path>
            </g>
        </g>
    </g>
</svg>

<svg xmlns="http://www.w3.org/2000/svg" width="24" height="24"><g fill="none" fill-rule="evenodd"><path d="M24 0v24H0V0h24ZM12.593 23.258l-.011.002-.071.035-.02.004-.014-.004-.071-.035c-.01-.004-.019-.001-.024.005l-.004.01-.017.428.005.02.01.013.104.074.015.004.012-.004.104-.074.012-.016.004-.017-.017-.427c-.002-.01-.009-.017-.017-.018Zm.265-.113-.013.002-.185.093-.01.01-.003.011.018.43.005.012.008.007.201.093c.012.004.023 0 .029-.008l.004-.014-.034-.614c-.003-.012-.01-.02-.02-.022Zm-.715.002a.023.023 0 0 0-.027.006l-.006.014-.034.614c0 .012.007.02.017.024l.015-.002.201-.093.01-.008.004-.011.017-.43-.003-.012-.01-.01-.184-.092Z"/><path fill="#09244B" d="M12 1a1 1 0 0 1 .993.883L13 2v2.17a3.001 3.001 0 0 1 1.222 4.846l-.137.141.785 2.748A4.994 4.994 0 0 1 17 16c0 .973-.278 1.881-.759 2.65l-.136.205 1.727 2.59a1 1 0 0 1-1.594 1.203l-.07-.093-1.535-2.303a4.97 4.97 0 0 1-1.342.58l-.29.068V22a1 1 0 0 1-1.994.117L11 22v-1.1c-.49-.1-.954-.27-1.381-.502l-.251-.146-1.536 2.303a1 1 0 0 1-1.723-1.009l.06-.1 1.726-2.59A4.977 4.977 0 0 1 7 16c0-1.609.76-3.04 1.94-3.955l.19-.14.785-2.748a3 3 0 0 1 .913-4.92L11 4.172V2a1 1 0 0 1 1-1Zm2.961 15.483c-.79.256-1.86.517-2.96.517-1.103 0-2.171-.26-2.962-.517a3 3 0 0 0 5.922 0ZM12.001 13a2.999 2.999 0 0 0-2.597 1.496c.713.25 1.68.504 2.596.504.916 0 1.883-.254 2.596-.504A2.999 2.999 0 0 0 12 13Zm.242-3.01a3.077 3.077 0 0 1-.324.009l-.162-.009-.296 1.039c.265-.029.54-.036.81-.022l.269.022-.297-1.039ZM12 6a1 1 0 1 0 0 2 1 1 0 0 0 0-2Z"/></g></svg>
